svg/office_building_minus_outline.svg

<svg xmlns="http://www.w3.org/2000/svg" viewBox="0 0 24 24"><path d="M12 11h-2V9h2zm2 0h2V9h-2zm-.6 10H12v-3.5h-2V21H4V3h14v10.1c.3-.1.7-.1 1-.1s.7 0 1 .1V1H2v22h12.5c-.5-.6-.9-1.3-1.1-2M14 7h2V5h-2zm2 6.8V13h-2v2h.5q.75-.75 1.5-1.2M8 5H6v2h2zm0 4H6v2h2zM6 19h2v-2H6zm6-14h-2v2h2zm-2 10h2v-2h-2zm-2-2H6v2h2zm7 5v2h8v-2z"/></svg>

<svg xmlns="http://www.w3.org/2000/svg" id="mdi-office-building-minus-outline" viewBox="0 0 24 24"><path d="M12 11H10V9H12V11M14 11H16V9H14V11M13.4 21H12V17.5H10V21H4V3H18V13.1C18.3 13 18.7 13 19 13C19.3 13 19.7 13 20 13.1V1H2V23H14.5C14 22.4 13.6 21.7 13.4 21M14 7H16V5H14V7M16 13.8V13H14V15H14.5C15 14.5 15.5 14.1 16 13.8M8 5H6V7H8V5M8 9H6V11H8V9M6 19H8V17H6V19M12 5H10V7H12V5M10 15H12V13H10V15M8 13H6V15H8V13M15 18V20H23V18H15Z" /></svg>
